X: 160184
T: Phil Cunningham's
C: P.Cunningham
Z: B.Black
R: reel
M: 4/4
L: 1/8
K: G
G/E/|DG (3GGG BAGA|Bd (3ddd egde|gd (3ddd egde|\
gedB cAFA |
DG (3GGG BAGA|Bd (3ddd egde|gd (3ddd egdB|\
cAFA G3 :|
A|Bd (3ddd edBd|eg (3ggg a2 ga|bgag gede|\
gedB AGEG |
Bd (3ddd edBd|eg (3ggg a2 ga|bgag egdB|\
cAFA G3 :|
